X: 2001
T: Yok mu Hâlâ Şefkatin
C: Hatibzâde İbrahim Efendi
O: Turkey
F: http://compmusic.upf.edu/node/140
N: yegah--sarki--agirduyek--yok_mu--hatipzade_ibrahim_efendi
N: makam= yegah
N: form= sarki
N: usul= agirduyek = 8/4
M: 8/4
L: 1/16
K: C _2/4B ^f  
Q: 1/4=72
%%MIDI tuningsystem comma53
e2de d2g2 ^3/4f2g2 e2=f2 d2e2 c2d2 B2c2 A4  | \
w:  ARANAĞME  | 
=B4 ^3/4c2d2 e4 d2=c2 c2_2/4B2 B2A2 A2G2 ^3/4F2E2  | 
w:   | 
D2E2 ^3/4F2G2 A2_1/4B2 A2G2 F3E D2F2 E3D ^3/4C2E2  | \
w:   | 
D6E2 ^3/4F4 G4 A2=B2 ^3/4c2d2 c2d2 e4  | 
w:   | 
e2de d2g2 ^3/4f2g2 e2=f2 d2e2 c2d2 B2c2 A4  | \
w:  ARANAĞME  | 
=B4 ^3/4c2d2 e4 d2=c2 c2_2/4B2 B2A2 A2G2 ^3/4F2E2  | 
w:   | 
D2E2 ^3/4F2G2 A2_1/4B2 A2G2 F3E D2F2 E3D ^3/4C2E2  | \
w:   | 
D6A2 =B2A2 _2/4B2^3/4c2 d16  | 
w:   | 
z4 d8 a2g2 g2^3/4f2 f2e2 e2d2 d4  | \
w:  Yok  mu  *  hâ  | 
d2^3/4f4ed d4 c'2=b2 a2g2 a2g2 f2^3/4e2 f4  | 
w:  lâ   | 
z4 g8 a4 a8 ag^3/4f^3/4e {g}f4  | \
w:  şef ka tin   | 
z4 ^3/4f2c'2 c'2=b2 b2a2 a2g4b2 agf^3/4e f4  | 
w:  ey   | 
z4 e2^3/4f2 g2=b2 a2g2 fgfe d4 =f2e2 d2e2  | \
w:  dil *  *  *  *  *  *  *  *  *  *  si  | 
^3/4c4 d4 d2e2 d2=c2 c2B4c2 d8  | 
w:  tan    | 
z4 d8 a4 z2g4^3/4f2 e4 g4  | g2^3/4f4e2 d4 =f4 z2e4d2 c4 e4  | \
w:  Bak  ne  ha  |  *  le  *  *  *  gir  | 
e2d4c2 B4 d4 z2c4B2 A4 c4  | 
w:  *  di  *  *  *  cism_  | 
c2B4A2 G4 B4 A2c2 B2A2 A2G2 ^3/4F4  | \
w:  *  i   | 
z4 E2^3/4F2 G2=B2 A2G2 F3E D4 =F2E2 D2E2  | 
w:  nâ *  *  *  *  *  *  *  *  tü  | 
^3/4C4 C2D2 E3D A3G ^3/4F3E EFED D4 d4  | \
w:  van   *  *  *  *  *  *  *  *  *  *  *  *  *  SAZ  | 
z4 d8 a4 z2g4^3/4f2 e4 g4  | 
w:  Bak  ne  ha  | 
g2^3/4f4e2 d4 =f4 z2e4d2 c4 e4  | \
w:  *  le  *  *  *  gir  | 
e2d4c2 B4 d4 z2c4B2 A4 c4  | c2B4A2 G4 B4 A2c2 B2A2 A2G2 ^3/4F4  | 
w:  *  di  *  *  *  cism_  |  *  i   | 
z4 E2^3/4F2 G2=B2 A2G2 F3E D4 =F2E2 D2E2  | \
w:  nâ *  *  *  *  *  *  *  *  tü  | 
^3/4C4 C2D2 E3D A2G2 ^3/4F2E2 EFED D4 a4  | 
w:  van   *  *  *  *  *  *  *  *  *  *  *  *  *  SAZ  | 
z4 g8 a4 a6d2 d8  | z2d2 c2B2 A6B2 (3c2B2c2 d2B2 A2G2 ^3/4F4  | \
w:  Mer ha met   |  kıl   | 
z4 e2^3/4f2 e4 f4 g2a2 g2a2 g4 f4  | 
w:  ey  *  *  ta bîb_  | 
^3/4f2g4_1/4b2 a4 g2f2 a2g2 f2e2 edd^3/4c d4  | \
w:  *  i   | 
z4 g4 ^3/4f4 e4 =f2e2 d4 f2e2 d2^3/4c2  | 
w:  mih *  *  *  *  *  ri  | 
d6e2 ^3/4f4 g4 a2g2 f2g2 c'2b2 a4  | \
w:  ban   *  *  *  *  *  *  *  SAZ  | 
z4 g8 a4 a6d2 d8  | z2d2 c2B2 A6B2 (3c2B2c2 d2B2 A2G2 ^3/4F4  | 
w:  Mer ha met   |  kıl   | 
z4 e2^3/4f2 e4 f4 g2a2 g2a2 g4 f4  | \
w:  ey  *  *  ta bîb_  | 
^3/4f2g4_1/4b2 a4 g2f2 a2g2 f2e2 edd^3/4c d4  | 
w:  *  i   | 
z4 g4 ^3/4f4 e4 =f2e2 d4 f2e2 d2e2  | \
w:  mih *  *  *  *  *  ri  | 
^3/4c4 d4 d2e2 d2c2 c2Bc B2c2 d8  | 
w:  ban   *  *  *  *  *  SAZ  | 
z4 d8 a4 z2g4^3/4f2 e4 g4  | g2^3/4f4e2 d4 =f4 z2e4d2 c4 e4  | \
w:  Bak  ne  ha  |  *  le  *  *  *  gir  | 
e2d4c2 B4 d4 z2c4B2 A4 c4  | 
w:  *  di  *  *  *  cism_  | 
c2B4A2 G4 B4 A2c2 B2A2 A2G2 ^3/4F4  | \
w:  *  i   | 
z4 E2^3/4F2 G2=B2 A2G2 F3E D4 =F2E2 D2E2  | 
w:  nâ *  *  *  *  *  *  *  *  tü  | 
^3/4C4 C2D2 E3D A2G2 ^3/4F2E2 EFED D4 z4  | |


